X: 12505
T: Farewell To Galway
R: reel
M: 4/4
K: Adorian
cAeA c ~A3|BGdc BAGB|cAeA c ~A3|dcBc ~A3 B|
cAeA c ~A3|d3c BAGB|AcBd ced=f|1 ecdB cAAB:|2 ea^gb ~a3 b||
c'2ag ~agef|gedc BAG2|c'bag ageg|(3fga ^gb ~a3 b|
c'2ag agef|gedc BAGB|(3ABc Bd ced=f|1 ea^ge ~a3 b:|2 ecdB ~A3B||

